power-standby.svg

<svg fill="currentColor" viewBox="0 0 24 24"><path d="M13 3h-2v10h2zm4.83 2.17-1.42 1.42A6.94 6.94 0 0 1 19 12a7 7 0 0 1-7 7A6.995 6.995 0 0 1 7.58 6.58L6.17 5.17a9 9 0 0 0-1.03 12.69c3.22 3.78 8.9 4.24 12.69 1.02A9 9 0 0 0 21 12c0-2.63-1.16-5.13-3.17-6.83"/></svg>

<svg  viewBox="0 0 24 24" fill="currentColor"><path  d="M13,3H11V13H13V3M17.83,5.17L16.41,6.59C18.05,7.91 19,9.9 19,12A7,7 0 0,1 12,19C8.14,19 5,15.88 5,12C5,9.91 5.95,7.91 7.58,6.58L6.17,5.17C2.38,8.39 1.92,14.07 5.14,17.86C8.36,21.64 14.04,22.1 17.83,18.88C19.85,17.17 21,14.65 21,12C21,9.37 19.84,6.87 17.83,5.17Z"/></svg>
